resources/svg/border-inner.svg

<svg xmlns="http://www.w3.org/2000/svg" viewBox="0 0 15 15" fill="currentColor"><path fill-rule="evenodd" clip-rule="evenodd" d="M2 2H1V1h1v1zm3 0H4V1h1v1zm2 5H1v1h6v6h1V8h6V7H8V1H7v6zm4-5h-1V1h1v1zm3 0h-1V1h1v1zM2 5H1V4h1v1zm12 0h-1V4h1v1zM2 11H1v-1h1v1zm12 0h-1v-1h1v1zM2 14H1v-1h1v1zm3 0H4v-1h1v1zm6 0h-1v-1h1v1zm3 0h-1v-1h1v1z" fill="currentColor"/></svg>

<svg xmlns="http://www.w3.org/2000/svg" viewBox="0 0 15 15" fill="currentColor"><path fill-rule="evenodd" clip-rule="evenodd" d="M2 2H1V1H2V2ZM5 2H4V1H5V2ZM7 7H1V8H7V14H8V8H14V7H8V1H7V7ZM11 2H10V1H11V2ZM14 2H13V1H14V2ZM2 5H1V4H2V5ZM14 5H13V4H14V5ZM2 11H1V10H2V11ZM14 11H13V10H14V11ZM2 14H1V13H2V14ZM5 14H4V13H5V14ZM11 14H10V13H11V14ZM14 14H13V13H14V14Z" fill="black"/></svg>
